source/img/icons/icon-arrow-bend.svg

<svg width="32" height="16" viewBox="0 0 32 16" fill="none" xmlns="http://www.w3.org/2000/svg">
<path fill-rule="evenodd" clip-rule="evenodd" d="M4 16H28C30.2091 16 32 14.2091 32 12V7C32 4.79086 30.2091 3 28 3H4V5H28C29.1046 5 30 5.89543 30 7V12C30 13.1046 29.1046 14 28 14H4V16Z" fill="white"/>
<path d="M0 4L9 0.535898V7.4641L0 4Z" fill="white"/>
</svg>

<svg viewBox="0 0 32 16" xmlns="http://www.w3.org/2000/svg">
<path d="M4 16h24a4 4 0 0 0 4-4V7a4 4 0 0 0-4-4H4v2h24a2 2 0 0 1 2 2v5a2 2 0 0 1-2 2H4v2Z" />
<path d="M0 4 9 .54v6.92L0 4Z"/>
</svg>
